svg/sentry.svg

<?xml version="1.0" encoding="UTF-8"?>
<svg width="256px" height="227px" viewBox="0 0 256 227" version="1.1" xmlns="http://www.w3.org/2000/svg" xmlns:xlink="http://www.w3.org/1999/xlink" preserveAspectRatio="xMidYMid">
    <g>
        <path d="M148.367708,12.4025287 C144.036807,5.21480737 136.258026,0.820118864 127.866362,0.820118864 C119.474697,0.820118864 111.695916,5.21480737 107.365016,12.4025287 L73.6403017,70.165071 C126.066153,96.3390588 160.689085,148.341727 164.615024,206.806542 L140.93597,206.806542 C137.017513,156.694333 106.874845,112.396698 61.6982677,90.3588968 L30.4849684,144.32869 C55.8497707,155.704426 73.6778379,179.211206 77.7918243,206.704035 L23.4120041,206.704035 C22.1018479,206.611361 20.9266153,205.864669 20.2861278,204.71799 C19.6456403,203.571311 19.6261529,202.179068 20.2342955,201.014912 L35.3027847,175.388229 C30.1976229,171.128798 24.3630321,167.829476 18.0816541,165.65009 L3.16692493,191.276772 C0.0305635285,196.656417 -0.818661742,203.068719 0.809210488,209.079324 C2.43708272,215.08993 6.40620885,220.197261 11.8287436,223.258872 C15.3657216,225.251729 19.3523095,226.310116 23.4120041,226.334074 L97.8831433,226.334074 C100.696274,191.620878 85.1423372,157.966047 56.8804514,137.614499 L68.7199787,117.113153 C104.398813,141.618242 124.473737,183.151896 121.510945,226.334074 L184.603837,226.334074 C187.593899,160.904124 155.557278,98.8221906 100.497065,63.3483734 L124.432386,22.3456815 C125.542508,20.4856859 127.944329,19.8680747 129.81399,20.9618406 C132.530418,22.4481882 233.807067,199.169791 235.703442,201.219925 C236.383476,202.439289 236.358897,203.929352 235.639016,205.125624 C234.919136,206.321896 233.614065,207.041397 232.218213,207.011555 L207.821611,207.011555 C208.129131,213.537817 208.129131,220.046994 207.821611,226.539592 L232.32072,226.539592 C238.604421,226.580218 244.643414,224.105731 249.091568,219.667205 C253.539722,215.228679 256.027289,209.195062 256,202.911286 C256.002825,198.802186 254.905596,194.767215 252.822066,191.225519 L148.367708,12.4025287 Z" fill="#362D59"></path>
    </g>
</svg>

<svg xmlns="http://www.w3.org/2000/svg" width="256" height="227" preserveAspectRatio="xMidYMid" viewBox="0 0 256 227"><path fill="#362D59" d="M148.368 12.403a23.935 23.935 0 0 0-41.003 0L73.64 70.165c52.426 26.174 87.05 78.177 90.975 136.642h-23.679c-3.918-50.113-34.061-94.41-79.238-116.448l-31.213 53.97a81.595 81.595 0 0 1 47.307 62.375h-54.38a3.895 3.895 0 0 1-3.178-5.69l15.069-25.626a55.046 55.046 0 0 0-17.221-9.738L3.167 191.277a23.269 23.269 0 0 0 8.662 31.982 23.884 23.884 0 0 0 11.583 3.075h74.471a99.432 99.432 0 0 0-41.003-88.72l11.84-20.5c35.679 24.504 55.754 66.038 52.79 109.22h63.094c2.99-65.43-29.047-127.512-84.107-162.986l23.935-41.002a3.947 3.947 0 0 1 5.382-1.384c2.716 1.486 103.993 178.208 105.89 180.258a3.895 3.895 0 0 1-3.486 5.792h-24.396c.307 6.526.307 13.035 0 19.528h24.499A23.528 23.528 0 0 0 256 202.91a23.015 23.015 0 0 0-3.178-11.685z"/></svg>
